X: 6870
T: Charlotte's
R: jig
M: 6/8
K: Amajor
|:Aa/a/a age|edc d2d|cc/c/c dd/d/d|cc/c/c dBe|
Aa/a/a age|edc d2d|cc/c/c dBe|dcB A2A:|
|:BB/B/B BAB|cef age|B3 BAB|cBA fec|
BB/B/B BAB|cef a2g|1 eca gec|age cec:|2 eca geB|cac BgB||

